img/forecast/crown.svg

<svg xmlns="http://www.w3.org/2000/svg" viewBox="0 0 23 23"><path d="M2 5.45v10.08h19V5.44l-2.4 2.08a3 3 0 0 1-4.23-.32 1.84 1.84 0 0 1-.17-.2l-2.7-3.81L8.78 7a3 3 0 0 1-4.19.69l-.21-.17zm-.35-2.94L5.69 6a1 1 0 0 0 1.41-.1.35.35 0 0 0 .05-.08L10.69.89a1 1 0 0 1 1.39-.24 1 1 0 0 1 .23.24l3.52 4.93a1 1 0 0 0 1.39.24l.07-.06 4.06-3.5a1 1 0 0 1 1.41.11 1 1 0 0 1 .24.65v13.27a1 1 0 0 1-1 1H1a1 1 0 0 1-1-1V3.27a1 1 0 0 1 1-1 1 1 0 0 1 .65.25zM1 20.53h21a1 1 0 0 1 0 2H1a1 1 0 0 1 0-2"/></svg>

<svg xmlns="http://www.w3.org/2000/svg" viewBox="0 0 23 23">
	<path d="M2,5.45V15.53H21V5.44L18.6,7.52a3,3,0,0,1-4.23-.32A1.84,1.84,0,0,1,14.2,7L11.5,3.19,8.78,7a3,3,0,0,1-4.19.69l-.21-.17ZM1.65,2.51,5.69,6A1,1,0,0,0,7.1,5.9a.35.35,0,0,0,.05-.08L10.69.89A1,1,0,0,1,12.08.65a1,1,0,0,1,.23.24l3.52,4.93a1,1,0,0,0,1.39.24L17.29,6l4.06-3.5a1,1,0,0,1,1.41.11,1,1,0,0,1,.24.65V16.53a1,1,0,0,1-1,1H1a1,1,0,0,1-1-1V3.27a1,1,0,0,1,1-1,1,1,0,0,1,.65.25ZM1,20.53H22a1,1,0,0,1,0,2H1a1,1,0,0,1,0-2"/>
</svg>
